X: 32650
T: Plough And The Stars, The
R: reel
M: 4/4
K: Gmajor
GEDE GABd|gabg aged|Bd~d2 ed~d2|gedB AcBA|
GEDE GABd|g2 bg a2 ge|Bd~d2 gedB|AcBA G3 A:|
|:g3b a2ba|gabg aged|Bd~d2 ed~d2|gedB AcBA|
GEDE GABd|g2 bg a2 ge|Bd~d2 gedB|AcBA G3 A:|

